X:521
T:McFarlane's Lament
M:3/4
L:1/8
B:O'Neill's 521
N:"Mournful"
Z:Transcribed by Dave Wooldridge
K:G
(B>A) \
| G4 (d>B) | (A2 G) z (d>B) | (A2 G) .G2 | G4 Bd |
e2 e2 (g>e) | d4 (e>d) | B2 e2 (d>B) | A4 (G3/2A/4B/4) ||
(A2 G) z (G3/2A/4B/4) | (A2 G) z (B>d) | e2 (ef) (g>e) | d4 (ed) |
B2 B2 ([A3/2d3/2]B/2) | (A2 G) z (GA/2B/2) | (A2 G2) .G2 | G4 ||


